images/facebook.svg

<svg width="40" height="40" viewBox="0 0 40 40" fill="none" xmlns="http://www.w3.org/2000/svg">
<circle cx="20" cy="20" r="20" fill="#EDFFFC"/>
<path d="M26 10H23C21.6739 10 20.4021 10.5268 19.4645 11.4645C18.5268 12.4021 18 13.6739 18 15V18H15V22H18V30H22V22H25L26 18H22V15C22 14.7348 22.1054 14.4804 22.2929 14.2929C22.4804 14.1054 22.7348 14 23 14H26V10Z" stroke="#02897A" stroke-width="2" stroke-linecap="round" stroke-linejoin="round"/>
</svg>

<svg width="40" height="40" fill="none" xmlns="http://www.w3.org/2000/svg"><circle cx="20" cy="20" r="20" fill="#EDFFFC"/><path d="M26 10h-3a5 5 0 0 0-5 5v3h-3v4h3v8h4v-8h3l1-4h-4v-3a1 1 0 0 1 1-1h3v-4Z" stroke="#02897A" stroke-width="2" stroke-linecap="round" stroke-linejoin="round"/></svg>
